src/main/resources/icons/settings.svg

<!-- Copyright 2000-2023 JetBrains s.r.o. and contributors. Use of this source code is governed by the Apache 2.0 license. -->
<svg width="16" height="16" viewBox="0 0 16 16" fill="none" xmlns="http://www.w3.org/2000/svg">
<path fill-rule="evenodd" clip-rule="evenodd" d="M3.22655 4.36961C2.92233 4.76924 2.66735 5.20781 2.47037 5.67626L3.30992 7.0943C3.6406 7.65283 3.6406 8.34718 3.30992 8.9057L2.47037 10.3237C2.66736 10.7922 2.92233 11.2308 3.22656 11.6304L4.87261 11.6124C5.52165 11.6053 6.12297 11.9524 6.44133 12.5181L7.24899 13.953C7.49593 13.984 7.74792 14 8.00408 14C8.2602 14 8.51214 13.984 8.75904 13.9531L9.56671 12.5181C9.88507 11.9524 10.4864 11.6053 11.1354 11.6124L12.7816 11.6304C13.0858 11.2308 13.3408 10.7923 13.5377 10.3239L12.6981 8.9057C12.3674 8.34718 12.3674 7.65283 12.6981 7.0943L13.5377 5.67613C13.3408 5.20773 13.0858 4.76921 12.7816 4.36961L11.1354 4.38764C10.4864 4.39475 9.88507 4.04758 9.56671 3.48194L8.75904 2.04693C8.51214 2.01599 8.2602 2 8.00408 2C7.74792 2 7.49594 2.016 7.24899 2.04695L6.44133 3.48194C6.12297 4.04758 5.52165 4.39475 4.87261 4.38764L3.22655 4.36961ZM10.655 8.00001C10.655 9.46412 9.46811 10.651 8.004 10.651C6.5399 10.651 5.353 9.46412 5.353 8.00001C5.353 6.53591 6.5399 5.34902 8.004 5.34902C9.46811 5.34902 10.655 6.53591 10.655 8.00001ZM4.88356 3.3877C5.16752 3.39081 5.4306 3.23892 5.56988 2.99146L6.43817 1.44875C6.54914 1.25159 6.7401 1.1101 6.96387 1.07676C7.30327 1.0262 7.65062 1 8.00408 1C8.3575 1 8.7048 1.02619 9.04414 1.07674C9.26792 1.11007 9.45889 1.25157 9.56986 1.44873L10.4382 2.99146C10.5774 3.23892 10.8405 3.39081 11.1245 3.3877L12.8938 3.36832C13.1196 3.36585 13.3372 3.46012 13.4781 3.63661C13.9099 4.17766 14.2632 4.78416 14.5207 5.43884C14.6034 5.6491 14.5763 5.88489 14.4612 6.07931L13.5586 7.60376C13.4139 7.84811 13.4139 8.15189 13.5586 8.39625L14.4612 9.92069C14.5763 10.1151 14.6034 10.3509 14.5207 10.5612C14.2632 11.2158 13.9099 11.8223 13.4781 12.3634C13.3372 12.5399 13.1196 12.6342 12.8938 12.6317L11.1245 12.6123C10.8405 12.6092 10.5774 12.7611 10.4382 13.0085L9.56986 14.5513C9.45889 14.7484 9.26792 14.8899 9.04414 14.9233C8.7048 14.9738 8.3575 15 8.00408 15C7.65062 15 7.30327 14.9738 6.96387 14.9232C6.7401 14.8899 6.54914 14.7484 6.43817 14.5512L5.56988 13.0085C5.4306 12.7611 5.16752 12.6092 4.88356 12.6123L3.1144 12.6317C2.8886 12.6342 2.67096 12.5399 2.5301 12.3634C2.09822 11.8223 1.74489 11.2158 1.48738 10.561C1.40469 10.3508 1.43184 10.115 1.54695 9.92057L2.44942 8.39625C2.5941 8.15189 2.5941 7.84811 2.44942 7.60376L1.54695 6.07944C1.43184 5.88502 1.40469 5.64924 1.48738 5.43898C1.74489 4.78425 2.09822 4.1777 2.53009 3.63661C2.67096 3.46012 2.8886 3.36585 3.1144 3.36832L4.88356 3.3877ZM9.655 8.00001C9.655 8.91183 8.91582 9.65101 8.004 9.65101C7.09218 9.65101 6.353 8.91183 6.353 8.00001C6.353 7.08819 7.09218 6.34902 8.004 6.34902C8.91582 6.34902 9.655 7.08819 9.655 8.00001Z" fill="#6C707E"/>
</svg>

<svg xmlns="http://www.w3.org/2000/svg" width="16" height="16" fill="none"><path fill="#6C707E" fill-rule="evenodd" d="M3.227 4.37q-.46.602-.757 1.306l.84 1.418c.33.559.33 1.253 0 1.812l-.84 1.418c.197.468.452.907.757 1.306l1.646-.018c.649-.007 1.25.34 1.568.906l.808 1.435a6 6 0 0 0 1.51 0l.808-1.435c.318-.566.92-.913 1.568-.906l1.647.018c.304-.4.559-.838.756-1.306l-.84-1.418a1.78 1.78 0 0 1 0-1.812l.84-1.418a6 6 0 0 0-.756-1.306l-1.647.018a1.78 1.78 0 0 1-1.568-.906l-.808-1.435a6 6 0 0 0-1.51 0l-.808 1.435c-.318.566-.92.913-1.568.906zM10.655 8a2.651 2.651 0 1 1-5.302 0 2.651 2.651 0 0 1 5.302 0M4.884 3.388a.78.78 0 0 0 .686-.397l.868-1.542a.73.73 0 0 1 .526-.372 7 7 0 0 1 2.08 0 .73.73 0 0 1 .526.372l.868 1.542c.14.248.402.4.686.397l1.77-.02a.73.73 0 0 1 .584.269 7 7 0 0 1 1.043 1.802.73.73 0 0 1-.06.64l-.902 1.525a.78.78 0 0 0 0 .792l.902 1.525c.115.194.142.43.06.64a7 7 0 0 1-1.043 1.802.73.73 0 0 1-.584.269l-1.77-.02a.78.78 0 0 0-.686.396l-.868 1.543a.73.73 0 0 1-.526.372 7 7 0 0 1-2.08 0 .73.73 0 0 1-.526-.372l-.868-1.543a.78.78 0 0 0-.686-.396l-1.77.02a.73.73 0 0 1-.584-.269 7 7 0 0 1-1.043-1.802.73.73 0 0 1 .06-.64l.902-1.525a.78.78 0 0 0 0-.792l-.902-1.525a.73.73 0 0 1-.06-.64A7 7 0 0 1 2.53 3.637a.73.73 0 0 1 .584-.269zM9.655 8a1.651 1.651 0 1 1-3.302 0 1.651 1.651 0 0 1 3.302 0" clip-rule="evenodd"/></svg>
